src/svg/arrow-back-outline.svg

<svg version="1.2" baseProfile="tiny" xmlns="http://www.w3.org/2000/svg" width="24" height="24" viewBox="0 0 24 24"><path d="M19.164 19.547c-1.641-2.5-3.669-3.285-6.164-3.484v1.437c0 .534-.208 1.036-.586 1.414-.756.756-2.077.751-2.823.005l-6.293-6.207c-.191-.189-.298-.444-.298-.713s.107-.524.298-.712l6.288-6.203c.754-.755 2.073-.756 2.829.001.377.378.585.88.585 1.414v1.704c4.619.933 8 4.997 8 9.796v1c0 .442-.29.832-.714.958-.095.027-.19.042-.286.042-.331 0-.646-.165-.836-.452zm-7.141-5.536c2.207.056 4.638.394 6.758 2.121-.768-3.216-3.477-5.702-6.893-6.08-.504-.056-.888-.052-.888-.052v-3.497l-5.576 5.496 5.576 5.5v-3.499l1.023.011z"/></svg>

<?xml version="1.0" encoding="iso-8859-1"?>
<!-- Generator: Adobe Illustrator 16.2.1, SVG Export Plug-In . SVG Version: 6.00 Build 0)  -->
<svg version="1.2" baseProfile="tiny" id="Layer_1" xmlns="http://www.w3.org/2000/svg" xmlns:xlink="http://www.w3.org/1999/xlink"
	 x="0px" y="0px" width="24px" height="24px" viewBox="0 0 24 24" xml:space="preserve">
<g>
	<path d="M19.164,19.547c-1.641-2.5-3.669-3.285-6.164-3.484v1.437c0,0.534-0.208,1.036-0.586,1.414
		c-0.756,0.756-2.077,0.751-2.823,0.005l-6.293-6.207C3.107,12.523,3,12.268,3,11.999s0.107-0.524,0.298-0.712l6.288-6.203
		c0.754-0.755,2.073-0.756,2.829,0.001C12.792,5.463,13,5.965,13,6.499v1.704c4.619,0.933,8,4.997,8,9.796v1
		c0,0.442-0.29,0.832-0.714,0.958c-0.095,0.027-0.19,0.042-0.286,0.042C19.669,19.999,19.354,19.834,19.164,19.547z M12.023,14.011
		c2.207,0.056,4.638,0.394,6.758,2.121c-0.768-3.216-3.477-5.702-6.893-6.08C11.384,9.996,11,10,11,10V6.503l-5.576,5.496l5.576,5.5
		V14C11,14,11.738,14.01,12.023,14.011z"/>
</g>
</svg>
